X:1
T:Rock The Cradle, Joe
T:Fancy Version
C:Unknown
M:4/4
L:1/8
Q:1/4=100
K:D
|:fg|"D"a2 ag f2 fg|a2 ag f2 f2|g3 f g2 b2|"Bm"a6 eg|\
"D"fAeA d2 "G"eg|
"D"fAeA d2 ef|"G"gfed "A"cABc|"D"d6:||:A2-|"A"Acec Aceg|"D"f2 d2 d2 ef|
"G"g3 f g2 b2|"D"a6 A2-|"A"Acec Aceg|"D"f2 d2 d2 ef|"G"gfed "A"cABc|"D"d6:|
